X:1
T:To me thou art a flower
T:To me thou art a flower
T:(Heine)
T:Daniel Protheroe
T:English version by Henry G. Chapman
T:IMSLP Pubblico dominio
T:IMSLP Pubblico dominio
T:IMSLP Pubblico dominio
C:Daniel Protheroe
Z:English version by
Z:IMSLP Pubblico dominio
%%score [ 1 2 3 ( 4 5 ) ]
L:1/8
Q:1/4=95
M:6/4
K:C
V:1 treble-8 nm="Tenor I"
V:2 treble-8 nm="Tenor II"
V:3 bass nm="Bass I"
V:4 bass nm="Bass II"
V:5 bass 
V:1
!mf!"^Andante moderato" G2 | e4 e2 A4 A2 | d6 (G2 A2)!<(! B2 | (c2 d2)!<)! e2 g4 e2 | %4
w: To|me thou art a|flow\- er, _ So|pure * and chaste and|
!>(! d6- d4 d2!>)! | f4 f2 (f2 e2) d2 | d6 c6 |"^cresc." B2 B2 g2 g4 ^f2 | e6- e4!mf! e2 | %9
w: fair; * I|see thee with * the|sor\- row|Of a di\- vine de\-|spair. * Dear|
!p! d4 d2 (f2 e2) d2 | (d3 c B2) c4 c2 | c4 c2 (c2 d2) c2 | (c6 f4 e2) | %13
w: child, up\- on _ thy|fore\- * * head My|hands in pra\- yer are|placed, _ _|
!<(! d2 c2 B2 d2 c2 g2!<)! | g6 G4 A2 |!p! B4 B2 (A2 B2) c2 |!<(! d12!<)! | %17
w: That God mat Keep * thee|al\- way So|pure and fair _ and|chaste.|
"^cresc." c2 B2 c2 (d2 c2) a2 |!f! a6 (A2 B2) c2 | %19
w: That God mar keep * thee|al\- way _ So|
"^rall,       _       _       _       _       _       _       _       _       _" (d2 e2) f2[Q:1/4=80] (d4 d) c | %20
w: pure * and fair _ and|
 c6- c4 c2 |!pp![Q:1/4=75] d6!<(! d6!<)! |!mf!!>(! e6-!ppp! e4!>)! |] %23
w: chaste, _ so|fair and|chaste. *|
V:2
!mf! G2 | G4 G2 ^F4 F2 | (G4 A2) (B2 c2)!<(! d2 | (c2 B2)!<)! c2 ^c4 A2 |!>(! A6- A4 A2!>)! | %5
w: To|me thou art a|flow\- * er, _ So|pure * and chaste and|fair; * I|
 d4 c2 B4 B2 | (B3 c A2) (A2 E2 ^F2) |"^cresc." G2 B2 e2 ^c4 ^d2 | e6- e4!mf! B2 | %9
w: see thee with the|sor\- * * row * *|Of a di\- vine de\-|spair. * Dear|
!p! B4 B2 (d2 c2) B2 | (B3 A ^G2) A4 A2 | _B4 E2 (E2 F2) c2 | (c6 d4 G2) |!<(! G2 G2 G2 G4 c2!<)! | %14
w: child, up\- on _ thy|fore\- * * head My|hands in pra\- yer are|placed, _ _|That God mat Keep thee|
 ^c6 d4 =c2 |!p! B4 G2 ^F4 F2 |!<(! (G6 d6)!<)! |"^cresc." c2 B2 c2 (B2 c2) ^c2 |!f! ^c6 d4 =c2 | %19
w: al\- way So|pure and fair and|chaste. *|That God mar keep * thee|al\- way So|
"^rall,       _       _       _       _       _       _       _       _       _" c4 c2 (c2 B3) G | %20
w: pure and fair _ and|
 (G6 A4) A2 |!pp! c6!<(! (c4 B2)!<)! |!mf!!>(! c6-!ppp! c4!>)! |] %23
w: chaste, _ so|fair and *|chaste. *|
V:3
!mf! G,2 | (G,2 A,2) B,2 (C2 B,2) A,2 | (B,4 A,2) G,4!<(! G,2 | G,4!<)! G,2 A,4 G,2 | %4
w: To|me * thou art * a|flow\- * er, So|pure and chaste and|
!>(! F,6- F,4 F,2!>)! | (A,3 B,) A,2 ^G,4 G,2 | E,6 E,6 |"^cresc." E,2 =G,2 B,2 ^A,4 =A,2 | %8
w: fair; * I|see * thee with the|sor\- row|Of a di\- vine de\-|
 G,6- G,4!mf! G,2 |!p! G,4 G,2 A,4 ^G,2 | E,6 E,4 E,2 | (E,3 F,) =G,2 (_B,2 A,2) ^G,2 | %12
w: spair. * Dear|child, up\- on thy|fore\- head My|hands * in pra\- yer are|
 (A,6- A,2 =B,2 C2) |!<(! D2 E2 D2 G,4 A,2!<)! | ^A,6 B,4 G,2 |!p! (G,6 D,4) C,2 | %16
w: placed, _ _ _|That God mat Keep thee|al\- way So|pure _ and|
!<(! (D,2 G,2)!<)! D2 (C2 B,2 B,2) |"^cresc." G,2 F,2 G,2 G,4 E,2 |!f! E,6 F,4 G,2 | %19
w: fair * and chaste, _ _|That God mar keep thee|al\- way So|
"^rall,       _       _       _       _       _       _       _       _       _" (A,2 G,2) A,2 (G,2 F,3) E, | %20
w: pure * and fair _ and|
 E,6- E,4 E,2 |!pp! A,6!<(! _A,6!<)! |!mf!!>(! G,6-!ppp! G,4!>)! |] %23
w: chaste, _ so|fair and|chaste. *|
V:4
!mf! G,2 | C,4 C,2 C,4 C,2 | F,6 F,4!<(! F,2 | (E,2 D,2)!<)! C,2 (A,,2 B,,2) ^C,2 | %4
w: To|me thou art a|flow\- er, So|pure * and chaste * and|
!>(! D,6- D,4 D,2!>)! | B,,4 B,,2 E,4 E,2 | A,,6 A,,6 |"^cresc." B,,2 B,,2 B,,2 B,,4 B,,2 | %8
w: fair; * I|see thee with the|sor\- row|Of a di\- vine de\-|
 E,6- E,4!mf! E,2 |!p! F,4 F,2 (D,2 E,2) E,2 | A,,6 A,,4 A,,2 | G,,4 G,,2 C,4 C,2 | %12
w: spair. * Dear|child, up\- on _ thy|fore\- head My|hands in prayer are|
 (F,4 E,2 D,4 C,2) |!<(! B,,2 C,2 D,2 E,4 E,2!<)! | _E,6 D,4 E,2 |!p!!p! (D,6 C,4) C,2 | %16
w: placed, _ _ _|That God mat Keep thee|al\- way So|pure _ and|
!<(! B,,4!<)! B,2 (A,2 G,2 =F,2) |"^cresc." E,2 D,2 E,2 (F,2 E,2) A,,2 |!f! A,,6 D,4 E,2 | %19
w: fair and chaste, _ _|That God mar keep * thee|al\- way So|
"^rall,       _       _       _       _       _       _       _       _       _" (F,2 E,2) D,2 G,,4- G,, C, | %20
w: pure * and fair _ and|
 (C,4 B,,2 A,,4) G,,2 |!pp! F,,6!<(! F,6!<)! |!mf!!>(! C,6-!ppp! C,4!>)! |] %23
w: chaste, _ _ so|fair and|chaste. *|
V:5
 x2 | x12 | x12 | x12 | x12 | x12 | x12 | x12 | E,,6- E,,4 E,2 | x12 | x12 | x12 | x12 | x12 | %14
 x12 | x12 | x12 | x12 | x12 | x12 | x12 | x6 F,,6 | C,,6- C,,4 |] %23

